static/img/kroki/0fe1d5a5f8cfde9e7836734849e79671.svg

<?xml version="1.0" encoding="us-ascii" standalone="no"?><svg xmlns="http://www.w3.org/2000/svg" xmlns:xlink="http://www.w3.org/1999/xlink" contentStyleType="text/css" height="767px" preserveAspectRatio="none" style="width:298px;height:767px;" version="1.1" viewBox="0 0 298 767" width="298px" zoomAndPan="magnify"><defs/><g><!--class aws_glacier_vault--><g id="elem_aws_glacier_vault"><rect codeLine="22" fill="#3D176E" height="126.6797" id="aws_glacier_vault" rx="2.5" ry="2.5" style="stroke:#000D19;stroke-width:0.5;" width="284" x="7" y="633.84"/><ellipse cx="65.25" cy="653.7345" fill="#ADD1B2" rx="11" ry="11" style="stroke:#181818;stroke-width:1.0;"/><path d="M68.2188,659.3752 Q67.6406,659.672 67,659.8127 Q66.3594,659.9689 65.6563,659.9689 Q63.1563,659.9689 61.8281,658.3283 Q60.5156,656.672 60.5156,653.547 Q60.5156,650.422 61.8281,648.7658 Q63.1563,647.1095 65.6563,647.1095 Q66.3594,647.1095 67,647.2658 Q67.6563,647.422 68.2188,647.7189 L68.2188,650.4377 Q67.5938,649.8595 67,649.5939 Q66.4063,649.3127 65.7813,649.3127 Q64.4375,649.3127 63.75,650.3908 Q63.0625,651.4533 63.0625,653.547 Q63.0625,655.6408 63.75,656.7189 Q64.4375,657.7814 65.7813,657.7814 Q66.4063,657.7814 67,657.5158 Q67.5938,657.2345 68.2188,656.6564 L68.2188,659.3752 Z " fill="#000000"/><text fill="#D9B8FF" font-family="Helvetica" font-size="17" lengthAdjust="spacing" textLength="149" x="90.75" y="659.6198">aws_glacier_vault</text><line style="stroke:#000D19;stroke-width:0.5;" x1="8" x2="290" y1="673.6291" y2="673.6291"/><text fill="#D9B8FF" font-family="sans-serif" font-size="14" font-weight="bold" lengthAdjust="spacing" textLength="212" x="18" y="695.6242">glacier_last_inventory_date</text><text fill="#D9B8FF" font-family="sans-serif" font-size="14" lengthAdjust="spacing" textLength="48" x="230" y="695.6242">: string</text><text fill="#D9B8FF" font-family="sans-serif" font-size="14" font-weight="bold" lengthAdjust="spacing" textLength="218" x="18" y="721.9211">glacier_number_of_archives</text><text fill="#D9B8FF" font-family="sans-serif" font-size="14" lengthAdjust="spacing" textLength="44" x="236" y="721.9211">: int64</text><text fill="#D9B8FF" font-family="sans-serif" font-size="14" font-weight="bold" lengthAdjust="spacing" textLength="164" x="18" y="748.2179">glacier_size_in_bytes</text><text fill="#D9B8FF" font-family="sans-serif" font-size="14" lengthAdjust="spacing" textLength="44" x="182" y="748.2179">: int64</text></g><!--class aws_resource--><g id="elem_aws_resource"><rect codeLine="27" fill="#3D176E" height="74.0859" id="aws_resource" rx="2.5" ry="2.5" style="stroke:#000D19;stroke-width:0.5;" width="155" x="71.5" y="438.75"/><ellipse cx="86.5" cy="458.6445" fill="#ADD1B2" rx="11" ry="11" style="stroke:#181818;stroke-width:1.0;"/><path d="M89.4688,464.2852 Q88.8906,464.582 88.25,464.7227 Q87.6094,464.8789 86.9063,464.8789 Q84.4063,464.8789 83.0781,463.2383 Q81.7656,461.582 81.7656,458.457 Q81.7656,455.332 83.0781,453.6758 Q84.4063,452.0195 86.9063,452.0195 Q87.6094,452.0195 88.25,452.1758 Q88.9063,452.332 89.4688,452.6289 L89.4688,455.3477 Q88.8438,454.7695 88.25,454.5039 Q87.6563,454.2227 87.0313,454.2227 Q85.6875,454.2227 85,455.3008 Q84.3125,456.3633 84.3125,458.457 Q84.3125,460.5508 85,461.6289 Q85.6875,462.6914 87.0313,462.6914 Q87.6563,462.6914 88.25,462.4258 Q88.8438,462.1445 89.4688,461.5664 L89.4688,464.2852 Z " fill="#000000"/><text fill="#D9B8FF" font-family="Helvetica" font-size="17" lengthAdjust="spacing" textLength="113" x="105.5" y="464.5298">aws_resource</text><line style="stroke:#000D19;stroke-width:0.5;" x1="72.5" x2="225.5" y1="478.5391" y2="478.5391"/><text fill="#D9B8FF" font-family="sans-serif" font-size="14" font-weight="bold" lengthAdjust="spacing" textLength="26" x="82.5" y="500.5342">arn</text><text fill="#D9B8FF" font-family="sans-serif" font-size="14" lengthAdjust="spacing" textLength="48" x="108.5" y="500.5342">: string</text></g><!--class resource--><g id="elem_resource"><rect codeLine="30" fill="#3D176E" height="310.7578" id="resource" rx="2.5" ry="2.5" style="stroke:#000D19;stroke-width:0.5;" width="227" x="35.5" y="7"/><ellipse cx="104.25" cy="26.8945" fill="#ADD1B2" rx="11" ry="11" style="stroke:#181818;stroke-width:1.0;"/><path d="M107.2188,32.5352 Q106.6406,32.832 106,32.9727 Q105.3594,33.1289 104.6563,33.1289 Q102.1563,33.1289 100.8281,31.4883 Q99.5156,29.832 99.5156,26.707 Q99.5156,23.582 100.8281,21.9258 Q102.1563,20.2695 104.6563,20.2695 Q105.3594,20.2695 106,20.4258 Q106.6563,20.582 107.2188,20.8789 L107.2188,23.5977 Q106.5938,23.0195 106,22.7539 Q105.4063,22.4727 104.7813,22.4727 Q103.4375,22.4727 102.75,23.5508 Q102.0625,24.6133 102.0625,26.707 Q102.0625,28.8008 102.75,29.8789 Q103.4375,30.9414 104.7813,30.9414 Q105.4063,30.9414 106,30.6758 Q106.5938,30.3945 107.2188,29.8164 L107.2188,32.5352 Z " fill="#000000"/><text fill="#D9B8FF" font-family="Helvetica" font-size="17" lengthAdjust="spacing" textLength="71" x="129.75" y="32.7798">resource</text><line style="stroke:#000D19;stroke-width:0.5;" x1="36.5" x2="261.5" y1="46.7891" y2="46.7891"/><text fill="#D9B8FF" font-family="sans-serif" font-size="14" font-weight="bold" lengthAdjust="spacing" textLength="29" x="46.5" y="68.7842">age</text><text fill="#D9B8FF" font-family="sans-serif" font-size="14" lengthAdjust="spacing" textLength="66" x="75.5" y="68.7842">: duration</text><text fill="#D9B8FF" font-family="sans-serif" font-size="14" font-weight="bold" lengthAdjust="spacing" textLength="43" x="46.5" y="95.0811">atime</text><text fill="#D9B8FF" font-family="sans-serif" font-size="14" lengthAdjust="spacing" textLength="70" x="89.5" y="95.0811">: datetime</text><text fill="#D9B8FF" font-family="sans-serif" font-size="14" font-weight="bold" lengthAdjust="spacing" textLength="43" x="46.5" y="121.3779">ctime</text><text fill="#D9B8FF" font-family="sans-serif" font-size="14" lengthAdjust="spacing" textLength="70" x="89.5" y="121.3779">: datetime</text><text fill="#D9B8FF" font-family="sans-serif" font-size="14" font-weight="bold" lengthAdjust="spacing" textLength="14" x="46.5" y="147.6748">id</text><text fill="#D9B8FF" font-family="sans-serif" font-size="14" lengthAdjust="spacing" textLength="48" x="60.5" y="147.6748">: string</text><text fill="#D9B8FF" font-family="sans-serif" font-size="14" font-weight="bold" lengthAdjust="spacing" textLength="33" x="46.5" y="173.9717">kind</text><text fill="#D9B8FF" font-family="sans-serif" font-size="14" lengthAdjust="spacing" textLength="48" x="79.5" y="173.9717">: string</text><text fill="#D9B8FF" font-family="sans-serif" font-size="14" font-weight="bold" lengthAdjust="spacing" textLength="90" x="46.5" y="200.2686">last_access</text><text fill="#D9B8FF" font-family="sans-serif" font-size="14" lengthAdjust="spacing" textLength="66" x="136.5" y="200.2686">: duration</text><text fill="#D9B8FF" font-family="sans-serif" font-size="14" font-weight="bold" lengthAdjust="spacing" textLength="90" x="46.5" y="226.5654">last_update</text><text fill="#D9B8FF" font-family="sans-serif" font-size="14" lengthAdjust="spacing" textLength="66" x="136.5" y="226.5654">: duration</text><text fill="#D9B8FF" font-family="sans-serif" font-size="14" font-weight="bold" lengthAdjust="spacing" textLength="48" x="46.5" y="252.8623">mtime</text><text fill="#D9B8FF" font-family="sans-serif" font-size="14" lengthAdjust="spacing" textLength="70" x="94.5" y="252.8623">: datetime</text><text fill="#D9B8FF" font-family="sans-serif" font-size="14" font-weight="bold" lengthAdjust="spacing" textLength="43" x="46.5" y="279.1592">name</text><text fill="#D9B8FF" font-family="sans-serif" font-size="14" lengthAdjust="spacing" textLength="48" x="89.5" y="279.1592">: string</text><text fill="#D9B8FF" font-family="sans-serif" font-size="14" font-weight="bold" lengthAdjust="spacing" textLength="34" x="46.5" y="305.4561">tags</text><text fill="#D9B8FF" font-family="sans-serif" font-size="14" lengthAdjust="spacing" textLength="171" x="80.5" y="305.4561">: dictionary[string, string]</text></g><!--reverse link aws_resource to aws_glacier_vault--><g id="link_aws_resource_aws_glacier_vault"><path codeLine="42" d="M149,533.86 C149,564.49 149,602.28 149,633.69 " fill="none" id="aws_resource-backto-aws_glacier_vault" style="stroke:#FFAF37;stroke-width:2.0;"/><polygon fill="none" points="142,534.02,149,514.02,156,534.02,142,534.02" style="stroke:#FFAF37;stroke-width:2.0;"/></g><!--reverse link resource to aws_resource--><g id="link_resource_aws_resource"><path codeLine="43" d="M149,338.97 C149,376.78 149,413 149,438.51 " fill="none" id="resource-backto-aws_resource" style="stroke:#FFAF37;stroke-width:2.0;"/><polygon fill="none" points="142,339.17,149,319.17,156,339.17,142,339.17" style="stroke:#FFAF37;stroke-width:2.0;"/></g><!--SRC=[XPFBJiCm44Nt_GfBx2egjRnA4PjI2S468M27K3Ir9wdLnAx6arRXyUyu2K5EKkWkklTuvixOMMc50hCD5oB3R8da1cwjpGO8CZ4dihk5JIs9epY6-7JQDM-juOF00sGexZ3T8ci9NU9bfUNQe7FY9B1kGAuJihbHTNacCCvRQ3YW5YauDsSclSmPWp1gjhoCuoxPBNfqgYRJ2-nXbXJI3p8UZzLaraKEjlftxb_YMR-Zc8HBUx2ClPYz5XNrRygI24Bs1ctyFpC-WbBQ9E8yq9xgJ6IGMlhp2fJTbNGCgGlRE4P2oyK65xsfS7QfukbU-FulM9QR4x1pKPA2r4ZH5lAKnSTWE6mKZt2apTO_5Kj5f81nEBporSad33YJb-yzid4495TwYwx4jE6Biu1o_efyjMXPS0Xy1L48dSr9OfK2o0JT6goD95KWbHEmjgPKM6UrviEMtrwJUpIjMfFupRM5QdIGqlzDdGwLas-QPGHEjgUFWQozCuQahgXbUGoeUAszun_cpO_QsiNrvsWqwj_KO0_GIDy0]--></g></svg>

<svg xmlns="http://www.w3.org/2000/svg" width="298" height="767" preserveAspectRatio="none" style="width:298px;height:767px"><rect width="284" height="126.68" x="7" y="633.84" fill="#3D176E" rx="2.5" ry="2.5" style="stroke:#000d19;stroke-width:.5"/><circle cx="65.25" cy="653.735" r="11" fill="#ADD1B2" style="stroke:#181818;stroke-width:1"/><path d="M68.219 659.375q-.578.297-1.219.438-.64.156-1.344.156-2.5 0-3.828-1.64-1.312-1.657-1.312-4.782t1.312-4.781q1.328-1.656 3.828-1.656.703 0 1.344.156.656.156 1.219.453v2.719q-.625-.578-1.219-.844-.594-.281-1.219-.281-1.344 0-2.031 1.078-.688 1.062-.688 3.156 0 2.094.688 3.172.688 1.062 2.031 1.062.625 0 1.219-.265.594-.281 1.219-.86v2.72Z"/><text x="90.75" y="659.62" fill="#D9B8FF" font-family="Helvetica" font-size="17" textLength="149">aws_glacier_vault</text><path d="M8 673.629h282" style="stroke:#000d19;stroke-width:.5"/><text x="18" y="695.624" fill="#D9B8FF" font-family="sans-serif" font-size="14" font-weight="bold" textLength="212">glacier_last_inventory_date</text><text x="230" y="695.624" fill="#D9B8FF" font-family="sans-serif" font-size="14" textLength="48">: string</text><text x="18" y="721.921" fill="#D9B8FF" font-family="sans-serif" font-size="14" font-weight="bold" textLength="218">glacier_number_of_archives</text><text x="236" y="721.921" fill="#D9B8FF" font-family="sans-serif" font-size="14" textLength="44">: int64</text><text x="18" y="748.218" fill="#D9B8FF" font-family="sans-serif" font-size="14" font-weight="bold" textLength="164">glacier_size_in_bytes</text><text x="182" y="748.218" fill="#D9B8FF" font-family="sans-serif" font-size="14" textLength="44">: int64</text><rect width="155" height="74.086" x="71.5" y="438.75" fill="#3D176E" rx="2.5" ry="2.5" style="stroke:#000d19;stroke-width:.5"/><circle cx="86.5" cy="458.644" r="11" fill="#ADD1B2" style="stroke:#181818;stroke-width:1"/><path d="M89.469 464.285q-.578.297-1.219.438-.64.156-1.344.156-2.5 0-3.828-1.64-1.312-1.657-1.312-4.782t1.312-4.781q1.328-1.656 3.828-1.656.703 0 1.344.156.656.156 1.219.453v2.719q-.625-.579-1.219-.844-.594-.281-1.219-.281-1.344 0-2.031 1.078-.688 1.062-.688 3.156 0 2.094.688 3.172.688 1.062 2.031 1.062.625 0 1.219-.265.594-.281 1.219-.86v2.72Z"/><text x="105.5" y="464.53" fill="#D9B8FF" font-family="Helvetica" font-size="17" textLength="113">aws_resource</text><path d="M72.5 478.539h153" style="stroke:#000d19;stroke-width:.5"/><text x="82.5" y="500.534" fill="#D9B8FF" font-family="sans-serif" font-size="14" font-weight="bold" textLength="26">arn</text><text x="108.5" y="500.534" fill="#D9B8FF" font-family="sans-serif" font-size="14" textLength="48">: string</text><rect width="227" height="310.758" x="35.5" y="7" fill="#3D176E" rx="2.5" ry="2.5" style="stroke:#000d19;stroke-width:.5"/><circle cx="104.25" cy="26.895" r="11" fill="#ADD1B2" style="stroke:#181818;stroke-width:1"/><path d="M107.219 32.535q-.578.297-1.219.438-.64.156-1.344.156-2.5 0-3.828-1.64-1.312-1.657-1.312-4.782t1.312-4.781q1.328-1.656 3.828-1.656.703 0 1.344.156.656.156 1.219.453v2.719q-.625-.578-1.219-.844-.594-.281-1.219-.281-1.344 0-2.031 1.078-.688 1.062-.688 3.156 0 2.094.688 3.172.688 1.062 2.031 1.062.625 0 1.219-.265.594-.281 1.219-.86v2.72Z"/><text x="129.75" y="32.78" fill="#D9B8FF" font-family="Helvetica" font-size="17" textLength="71">resource</text><path d="M36.5 46.789h225" style="stroke:#000d19;stroke-width:.5"/><text x="46.5" y="68.784" fill="#D9B8FF" font-family="sans-serif" font-size="14" font-weight="bold" textLength="29">age</text><text x="75.5" y="68.784" fill="#D9B8FF" font-family="sans-serif" font-size="14" textLength="66">: duration</text><text x="46.5" y="95.081" fill="#D9B8FF" font-family="sans-serif" font-size="14" font-weight="bold" textLength="43">atime</text><text x="89.5" y="95.081" fill="#D9B8FF" font-family="sans-serif" font-size="14" textLength="70">: datetime</text><text x="46.5" y="121.378" fill="#D9B8FF" font-family="sans-serif" font-size="14" font-weight="bold" textLength="43">ctime</text><text x="89.5" y="121.378" fill="#D9B8FF" font-family="sans-serif" font-size="14" textLength="70">: datetime</text><text x="46.5" y="147.675" fill="#D9B8FF" font-family="sans-serif" font-size="14" font-weight="bold" textLength="14">id</text><text x="60.5" y="147.675" fill="#D9B8FF" font-family="sans-serif" font-size="14" textLength="48">: string</text><text x="46.5" y="173.972" fill="#D9B8FF" font-family="sans-serif" font-size="14" font-weight="bold" textLength="33">kind</text><text x="79.5" y="173.972" fill="#D9B8FF" font-family="sans-serif" font-size="14" textLength="48">: string</text><text x="46.5" y="200.269" fill="#D9B8FF" font-family="sans-serif" font-size="14" font-weight="bold" textLength="90">last_access</text><text x="136.5" y="200.269" fill="#D9B8FF" font-family="sans-serif" font-size="14" textLength="66">: duration</text><text x="46.5" y="226.565" fill="#D9B8FF" font-family="sans-serif" font-size="14" font-weight="bold" textLength="90">last_update</text><text x="136.5" y="226.565" fill="#D9B8FF" font-family="sans-serif" font-size="14" textLength="66">: duration</text><text x="46.5" y="252.862" fill="#D9B8FF" font-family="sans-serif" font-size="14" font-weight="bold" textLength="48">mtime</text><text x="94.5" y="252.862" fill="#D9B8FF" font-family="sans-serif" font-size="14" textLength="70">: datetime</text><text x="46.5" y="279.159" fill="#D9B8FF" font-family="sans-serif" font-size="14" font-weight="bold" textLength="43">name</text><text x="89.5" y="279.159" fill="#D9B8FF" font-family="sans-serif" font-size="14" textLength="48">: string</text><text x="46.5" y="305.456" fill="#D9B8FF" font-family="sans-serif" font-size="14" font-weight="bold" textLength="34">tags</text><text x="80.5" y="305.456" fill="#D9B8FF" font-family="sans-serif" font-size="14" textLength="171">: dictionary[string, string]</text><path fill="none" d="M149 533.86v99.83m-7-99.67 7-20 7 20h-14zm7-195.05v99.54m-7-99.34 7-20 7 20h-14z" style="stroke:#ffaf37;stroke-width:2"/></svg>
